vendor/shopware/storefront/Resources/app/storefront/dist/assets/icon/default/bag-product.svg

<svg xmlns="http://www.w3.org/2000/svg" width="24" height="24" viewBox="0 0 24 24">
  <path fill="#758CA3" fill-rule="evenodd" d="M5.89201868,3 C6.44430343,3 6.89201868,3.44771525 6.89201868,4 C6.89201868,4.55228475 6.44430343,5 5.89201868,5 L3.78952369,5 C3.25766412,5 2.81885983,5.41631714 2.79090586,5.94744326 L2.00143217,20.9474603 C1.97240468,21.4989833 2.39597003,21.969612 2.94749123,21.9986394 C2.9737585,21.9997912 2.9737585,21.9997912 3.00005,22.0000216 L8.39201868,22.0000216 C8.94430343,22.0000216 9.39201868,22.4477369 9.39201868,23.0000216 C9.39201868,23.5523064 8.94430343,24.0000216 8.39201868,24.0000216 L3.00005,24.0000216 C2.92117538,23.9993303 2.92117538,23.9993303 2.84237344,23.9958751 C1.18780904,23.9087927 -0.0828857673,22.4969079 0.00419651004,20.8423428 L0.793670194,5.84232572 C0.877531947,4.2489506 2.19394394,3 3.78952369,3 L5.89201868,3 Z M23.1358941,8.10768645 C23.1649215,8.65920785 22.7413565,9.12983565 22.1898351,9.15886306 C21.6383137,9.18789047 21.1676859,8.7643254 21.1386585,8.212804 L21.019429,5.94744123 C20.9914751,5.4163165 20.552671,5 20.0208111,5 L17.8920187,5 C17.3397339,5 16.8920187,4.55228475 16.8920187,4 C16.8920187,3.44771525 17.3397339,3 17.8920187,3 L20.0208111,3 C21.6163907,3 22.9328029,4.24894949 23.0166646,5.84232368 L23.1358941,8.10768645 Z M9.89201868,5 C9.89201868,5.55228475 9.44430343,6 8.89201868,6 C8.33973393,6 7.89201868,5.55228475 7.89201868,5 L7.89201868,3 C7.89201868,1.34314575 9.23516443,3.33066907e-16 10.8920187,0 L12.8920187,0 C14.5488729,-3.33066907e-16 15.8920187,1.34314575 15.8920187,3 L15.8920187,5 C15.8920187,5.55228475 15.4443034,6 14.8920187,6 C14.3397339,6 13.8920187,5.55228475 13.8920187,5 L13.8920187,3 C13.8920187,2.44771525 13.4443034,2 12.8920187,2 L10.8920187,2 C10.3397339,2 9.89201868,2.44771525 9.89201868,3 L9.89201868,5 Z M13.8920187,11 L20.8920187,11 C22.5488729,11 23.8920187,12.3431458 23.8920187,14 L23.8920187,21 C23.8920187,22.6568542 22.5488729,24 20.8920187,24 L13.8920187,24 C12.2351644,24 10.8920187,22.6568542 10.8920187,21 L10.8920187,14 C10.8920187,12.3431458 12.2351644,11 13.8920187,11 Z M13.8920187,13 C13.3397339,13 12.8920187,13.4477153 12.8920187,14 L12.8920187,21 C12.8920187,21.5522847 13.3397339,22 13.8920187,22 L20.8920187,22 C21.4443034,22 21.8920187,21.5522847 21.8920187,21 L21.8920187,14 C21.8920187,13.4477153 21.4443034,13 20.8920187,13 L13.8920187,13 Z"/>
</svg>

<svg xmlns="http://www.w3.org/2000/svg" width="24" height="24" viewBox="0 0 24 24"><path fill="#758CA3" fill-rule="evenodd" d="M5.892 3c.5523 0 1 .4477 1 1s-.4477 1-1 1H3.7895a1 1 0 0 0-.9986.9474l-.7895 15c-.029.5516.3946 1.0222.946 1.0512A.9999.9999 0 0 0 3 22h5.392c.5523 0 1 .4477 1 1s-.4477 1-1 1H3c-.0788-.0007-.0788-.0007-.1576-.0041-1.6546-.0871-2.9253-1.499-2.8382-3.1536l.7895-15C.8775 4.249 2.1939 3 3.7895 3H5.892zm17.244 5.1077c.029.5515-.3945 1.0221-.946 1.0512-.5516.029-1.0222-.3946-1.0512-.9461l-.1193-2.2654A1 1 0 0 0 20.0208 5H17.892c-.5523 0-1-.4477-1-1s.4477-1 1-1h2.1288c1.5956 0 2.912 1.249 2.9959 2.8423l.1192 2.2654zM9.892 5c0 .5523-.4477 1-1 1s-1-.4477-1-1V3c0-1.6569 1.3432-3 3-3h2c1.6569 0 3 1.3431 3 3v2c0 .5523-.4477 1-1 1s-1-.4477-1-1V3c0-.5523-.4477-1-1-1h-2c-.5523 0-1 .4477-1 1v2zm4 6h7c1.6569 0 3 1.3431 3 3v7c0 1.6569-1.3431 3-3 3h-7c-1.6568 0-3-1.3431-3-3v-7c0-1.6569 1.3432-3 3-3zm0 2c-.5523 0-1 .4477-1 1v7c0 .5523.4477 1 1 1h7c.5523 0 1-.4477 1-1v-7c0-.5523-.4477-1-1-1h-7z"/></svg>
